public/images/logos/mysql.svg

<svg width="28" height="28" viewBox="0 0 28 28" fill="none" xmlns="http://www.w3.org/2000/svg">
<g clip-path="url(#clip0_123_16)">
<path d="M24.9327 20.9275C23.5192 20.8923 22.4236 21.0337 21.5048 21.4223C21.2397 21.5283 20.8156 21.5284 20.7802 21.8641C20.9216 22.0055 20.9393 22.2353 21.063 22.4295C21.2753 22.7829 21.6461 23.26 21.9818 23.5075C22.3528 23.7902 22.724 24.0728 23.1126 24.3202C23.8018 24.7444 24.5794 24.9917 25.2508 25.4158C25.6397 25.663 26.0282 25.9813 26.417 26.2463C26.6113 26.3874 26.7349 26.6174 26.9825 26.7056V26.6527C26.8587 26.4936 26.8233 26.2639 26.6997 26.0872C26.5232 25.9105 26.3463 25.7514 26.1696 25.5747C25.6572 24.8857 25.0211 24.2849 24.332 23.7902C23.7666 23.4014 22.5296 22.8713 22.2999 22.2175C22.2999 22.2175 22.2821 22.1999 22.2646 22.1822C22.6533 22.1469 23.1126 22.0055 23.4838 21.8995C24.0846 21.7403 24.6323 21.7758 25.2508 21.6167C25.5335 21.546 25.8162 21.4577 26.0989 21.3693V21.2104C25.781 20.8923 25.5512 20.4683 25.2155 20.1678C24.3143 19.3902 23.3247 18.6305 22.2999 17.9944C21.7521 17.641 21.0452 17.4112 20.4621 17.1109C20.2503 17.0048 19.8967 16.9519 19.7731 16.7751C19.4549 16.3865 19.2782 15.8741 19.0486 15.4146C18.5363 14.4427 18.0414 13.3649 17.5996 12.3401C17.2817 11.6509 17.0873 10.9617 16.6985 10.3257C14.8785 7.32181 12.8995 5.50181 9.86034 3.71705C9.20648 3.34604 8.42902 3.187 7.59854 2.99271C7.15695 2.97494 6.71505 2.93969 6.27336 2.92192C5.99061 2.79822 5.70786 2.46255 5.46045 2.30351C4.45346 1.66732 1.85579 0.289216 1.11368 2.10922C0.636535 3.25769 1.82055 4.38848 2.2268 4.97176C2.52743 5.37811 2.916 5.83747 3.12807 6.29694C3.25177 6.59716 3.28701 6.91546 3.41071 7.23345C3.69357 8.01071 3.95844 8.87673 4.32965 9.60128C4.52404 9.97229 4.736 10.361 4.98341 10.6967C5.12478 10.891 5.37209 10.9795 5.42521 11.2975C5.1779 11.6509 5.16013 12.1811 5.01865 12.6228C4.38257 14.6195 4.63007 17.0932 5.53114 18.5598C5.81379 19.0014 6.48532 19.9736 7.38648 19.6023C8.18171 19.2844 8.005 18.2772 8.23453 17.3937C8.28775 17.1814 8.2524 17.0402 8.35833 16.8989V16.9343C8.60574 17.4289 8.85304 17.9061 9.08278 18.4009C9.6306 19.2666 10.5847 20.1678 11.3798 20.7687C11.804 21.0866 12.1397 21.6344 12.6699 21.8288V21.7757H12.6344C12.5284 21.6166 12.3693 21.546 12.2281 21.4222C11.9101 21.1044 11.5565 20.7156 11.3092 20.3621C10.5672 19.3725 9.91325 18.2771 9.33018 17.1462C9.04753 16.5985 8.80003 15.9977 8.57039 15.45C8.46426 15.2377 8.46426 14.9198 8.28764 14.8139C8.02257 15.2026 7.63389 15.5383 7.4395 16.0154C7.10393 16.7751 7.06849 17.7117 6.94479 18.6834C6.8741 18.7013 6.90934 18.6834 6.874 18.719C6.3087 18.5774 6.11431 17.9944 5.90214 17.4996C5.37199 16.2451 5.28363 14.2307 5.7432 12.7818C5.8669 12.4107 6.39706 11.2446 6.185 10.8911C6.07897 10.5554 5.72543 10.361 5.53114 10.096C5.3015 9.76023 5.054 9.3363 4.89505 8.96509C4.47093 7.97557 4.25886 6.88001 3.7995 5.89049C3.58743 5.43102 3.21653 4.95408 2.916 4.52996C2.58034 4.05292 2.20923 3.71705 1.94415 3.15165C1.85589 2.95737 1.73209 2.63927 1.87346 2.42721C1.90881 2.28583 1.97939 2.23292 2.12087 2.19758C2.35061 2.00308 3.00446 2.25049 3.234 2.35652C3.88786 2.6214 4.43558 2.86901 4.98341 3.24001C5.23071 3.41673 5.49579 3.7525 5.81379 3.84086H6.18489C6.75039 3.96446 7.38638 3.8762 7.91653 4.03515C8.85314 4.33547 9.70119 4.77726 10.4611 5.2544C12.7759 6.72097 14.6841 8.80605 15.9741 11.2975C16.1862 11.7037 16.2744 12.075 16.4688 12.499C16.84 13.3649 17.2994 14.2484 17.6703 15.0965C18.0414 15.9269 18.3947 16.7751 18.9249 17.4644C19.19 17.8353 20.2501 18.0297 20.7272 18.2241C21.0807 18.3831 21.6285 18.5246 21.9465 18.7189C22.5472 19.0898 23.148 19.5141 23.7135 19.9203C23.9962 20.1324 24.8796 20.5742 24.9327 20.9275Z" fill="#00546B"/>
<path d="M6.9094 5.57227C6.60908 5.57227 6.39712 5.60781 6.18506 5.66073V5.69607H6.2204C6.36188 5.97882 6.60908 6.17321 6.7857 6.42052C6.92718 6.70316 7.05078 6.98602 7.19225 7.26877C7.20982 7.25099 7.2275 7.23342 7.2275 7.23342C7.475 7.0566 7.59861 6.77395 7.59861 6.34983C7.49257 6.22623 7.4749 6.10252 7.38654 5.97882C7.28061 5.802 7.05078 5.71374 6.9094 5.57227Z" fill="#00546B"/>
</g>
<defs>
<clipPath id="clip0_123_16">
<rect width="26" height="25.5944" fill="white" transform="translate(1 1.20288)"/>
</clipPath>
</defs>
</svg>

<svg xmlns="http://www.w3.org/2000/svg" width="28" height="28" fill="none" xmlns:v="https://vecta.io/nano"><g clip-path="url(#A)" fill="#00546b"><path d="M24.933 20.928c-1.413-.035-2.509.106-3.428.495-.265.106-.689.106-.725.442.141.141.159.371.283.565.212.353.583.831.919 1.078l1.131.813c.689.424 1.467.672 2.138 1.096.389.247.777.566 1.166.831.194.141.318.371.566.459v-.053c-.124-.159-.159-.389-.283-.566l-.53-.512c-.512-.689-1.148-1.29-1.838-1.785-.565-.389-1.802-.919-2.032-1.573l-.035-.035c.389-.035.848-.177 1.219-.283.601-.159 1.149-.124 1.767-.283l.848-.247v-.159c-.318-.318-.548-.742-.883-1.043-.901-.778-1.891-1.537-2.916-2.173-.548-.353-1.255-.583-1.838-.883-.212-.106-.565-.159-.689-.336-.318-.389-.495-.901-.724-1.36L17.6 12.34c-.318-.689-.512-1.378-.901-2.014-1.82-3.004-3.799-4.824-6.838-6.609-.654-.371-1.431-.53-2.262-.724l-1.325-.071c-.283-.124-.566-.459-.813-.618C4.454 1.668 1.856.29 1.114 2.11c-.477 1.148.707 2.279 1.113 2.863.301.406.689.866.901 1.325.124.3.159.619.283.937l.919 2.368c.194.371.406.76.654 1.095.141.194.389.283.442.601-.247.353-.265.884-.407 1.325-.636 1.997-.389 4.47.512 5.937.283.442.954 1.414 1.855 1.043.795-.318.619-1.325.848-2.209.053-.212.018-.354.124-.495v.035l.724 1.467c.548.866 1.502 1.767 2.297 2.368.424.318.76.866 1.29 1.06v-.053h-.036c-.106-.159-.265-.23-.406-.354-.318-.318-.672-.707-.919-1.06-.742-.99-1.396-2.085-1.979-3.216-.283-.548-.53-1.149-.76-1.696-.106-.212-.106-.53-.283-.636-.265.389-.654.724-.848 1.201-.336.76-.371 1.696-.495 2.668-.071.018-.035 0-.071.036-.565-.142-.76-.725-.972-1.219-.53-1.255-.619-3.269-.159-4.718.124-.371.654-1.537.442-1.891-.106-.336-.46-.53-.654-.795a7.12 7.12 0 0 1-.636-1.131C4.471 7.976 4.259 6.88 3.8 5.89c-.212-.459-.583-.936-.884-1.361-.336-.477-.707-.813-.972-1.378-.088-.194-.212-.512-.071-.724.035-.141.106-.194.247-.23.23-.194.884.053 1.113.159.654.265 1.202.512 1.749.883.247.177.512.512.83.601h.371c.566.124 1.201.035 1.732.194.937.3 1.785.742 2.545 1.219a15.68 15.68 0 0 1 5.513 6.043c.212.406.3.777.495 1.202l1.201 2.598c.371.83.724 1.679 1.255 2.368.265.371 1.325.565 1.802.76.354.159.901.3 1.219.495l1.767 1.201c.283.212 1.166.654 1.219 1.007zM6.909 5.572a2.8 2.8 0 0 0-.724.088v.035h.035c.141.283.389.477.565.724l.407.848.035-.035c.247-.177.371-.459.371-.884-.106-.124-.124-.247-.212-.371-.106-.177-.336-.265-.477-.407z"/></g><defs><clipPath id="A"><path fill="#fff" transform="translate(1 1.203)" d="M0 0h26v25.594H0z"/></clipPath></defs></svg>
